dist/img/catalog-model/car_prop_3.svg

<svg width="49" height="50" viewBox="0 0 49 50" fill="none" xmlns="http://www.w3.org/2000/svg">
<path d="M43.9979 24.8196C43.9979 35.8641 35.0446 44.8196 23.9979 44.8196C12.9513 44.8196 4 35.8641 4 24.8196C4 13.775 12.9534 4.81958 24 4.81958C35.0466 4.81958 44 13.7729 44 24.8196H43.9979ZM17.405 32.4852C16.7664 29.7074 14.3078 27.7289 11.457 27.7018L10.4447 27.6913C9.79777 27.6851 9.32401 28.3091 9.51393 28.9269C10.1442 30.9993 11.1982 32.9235 12.6132 34.5744C13.8779 36.0499 15.9462 37.5755 17.9267 38.6441C18.6426 39.0302 19.4607 38.3414 19.1915 37.5734L17.4071 32.4852H17.405ZM28.7856 37.5734C28.5163 38.3414 29.3344 39.0302 30.0503 38.6441C32.0309 37.5776 34.0991 36.0499 35.3639 34.5744C36.7789 32.9235 37.8349 30.9993 38.4631 28.9269C38.6509 28.307 38.1793 27.683 37.5323 27.6913L36.5201 27.7018C33.6692 27.731 31.2107 29.7074 30.5721 32.4852L28.7876 37.5734H28.7856ZM23.977 19.2806C26.3625 19.2806 28.5998 20.466 29.9397 22.4404C32.9617 21.9687 35.9962 22.3151 37.5866 22.576C38.1501 22.6679 38.6322 22.1607 38.509 21.6035C37.0168 14.8707 30.9749 9.93489 23.977 9.93489H24C17.0022 9.93489 10.9602 14.8686 9.46802 21.6035C9.34488 22.1607 9.82699 22.6699 10.3905 22.576C11.9787 22.3151 15.0133 21.9666 18.0374 22.4404C19.3772 20.466 21.6145 19.2806 24 19.2806H23.977Z" stroke="#2453E1" stroke-width="1.5" stroke-linecap="round" stroke-linejoin="round"/>
</svg>

<svg width="49" height="50" viewBox="0 0 49 50" fill="none" xmlns="http://www.w3.org/2000/svg"><path d="M43.998 24.82c0 11.044-8.953 20-20 20S4 35.864 4 24.82c0-11.045 8.953-20 20-20s20 8.953 20 20h-.002zm-26.593 7.665a6.163 6.163 0 00-5.948-4.783l-1.012-.01a.96.96 0 00-.931 1.235 15.697 15.697 0 003.1 5.647c1.264 1.476 3.332 3.002 5.313 4.07.716.386 1.534-.303 1.265-1.07l-1.785-5.089h-.002zm11.38 5.088c-.269.768.55 1.457 1.265 1.071 1.98-1.066 4.05-2.594 5.314-4.07a15.666 15.666 0 003.1-5.647.96.96 0 00-.932-1.236l-1.012.01a6.166 6.166 0 00-5.948 4.784l-1.784 5.088h-.002zm-4.808-18.292a7.213 7.213 0 015.963 3.16c3.022-.472 6.056-.126 7.647.135a.81.81 0 00.922-.973c-1.492-6.732-7.534-11.668-14.532-11.668H24c-6.998 0-13.04 4.934-14.532 11.668a.81.81 0 00.922.973c1.589-.26 4.623-.61 7.647-.136A7.213 7.213 0 0124 19.28h-.023z" stroke="#2453E1" stroke-width="1.5" stroke-linecap="round" stroke-linejoin="round"/></svg>
